static/assets/head_icons_png/man/bizi/1020724.svg

<svg xmlns="http://www.w3.org/2000/svg" width="6" height="10"><g transform="translate(.2 4)"><radialGradient id="a" gradientUnits="userSpaceOnUse" gradientTransform="matrix(.00046 .00002 -.00005 .00418 1.35 -.2)" spreadMethod="pad" cx="0" cy="0" r="819.2" fx="0" fy="0"><stop offset=".314" stop-color="#fff" stop-opacity=".38"/><stop offset="1" stop-color="#fff" stop-opacity="0"/></radialGradient><path d="M1.9-.2l-.2 1.9-.3.65q-.25 0-.35-.75Q.9.9.9-.25l.2-1.8q.1-.75.35-.75l.3.8.15 1.8" fill="url(#a)"/><radialGradient id="b" gradientUnits="userSpaceOnUse" gradientTransform="matrix(.0031 0 0 .00418 2.45 3.2)" spreadMethod="pad" cx="0" cy="0" r="819.2" fx="0" fy="0"><stop offset=".082" stop-color="#f7a977" stop-opacity=".902"/><stop offset=".502" stop-color="#fbd1b7" stop-opacity=".882"/><stop offset="1" stop-color="#ffecd9" stop-opacity="0"/></radialGradient><path d="M2.75-1.5l.65 2 .55 2.6-.55.35q-.4.2-.65.35l-.4-.05q-.15-.2.15-.6l.4-.7V1.8q-.15-.35-.15-1.5v-1.8" fill="url(#b)"/><path d="M-.1 3.05h.05-.05" fill="#eda789"/><radialGradient id="c" gradientUnits="userSpaceOnUse" gradientTransform="matrix(.00404 0 0 .00354 2.45 3.2)" spreadMethod="pad" cx="0" cy="0" r="819.2" fx="0" fy="0"><stop offset=".082" stop-color="#eea677" stop-opacity=".902"/><stop offset=".549" stop-color="#fbd1b7" stop-opacity=".882"/><stop offset="1" stop-color="#ffecd9" stop-opacity="0"/></radialGradient><path d="M-.05 3.05Q.1 2.8.5 2.9l1 .15 1.15-.15q.6-.15.8.15.4.1 0 .4l-1 .75q-.4 1.2-.65 1.05l-.4-.6-.3-.55-.75-.45-.55-.45.1-.15h.05" fill="url(#c)"/><path d="M3.15 3.55l-1 .3q.35-.3.6-.35l.4.05m-1.85.3l-1.05-.3.5-.05.55.35" fill="#e27b50"/><radialGradient id="d" gradientUnits="userSpaceOnUse" gradientTransform="matrix(.00726 0 0 .00726 4.45 -3.6)" spreadMethod="pad" cx="0" cy="0" r="819.2" fx="0" fy="0"><stop offset=".082" stop-color="#f9bd97" stop-opacity=".902"/><stop offset=".427" stop-color="#fbd1b7" stop-opacity=".882"/><stop offset="1" stop-color="#ffecd9" stop-opacity="0"/></radialGradient><path d="M5.7-3.7L4.5-2.15Q3.4-.95 3.3.25 3.2 1.5 2.9 1.7q-.3.15-.15-2.15.1-2.35.75-2.8l.75-.45.85-.25q.75-.15.6.25" fill="url(#d)"/></g></svg>

<?xml version="1.0" encoding="utf-8"?>
<svg version="1.1" id="Layer_1"
xmlns="http://www.w3.org/2000/svg"
xmlns:xlink="http://www.w3.org/1999/xlink"
xmlns:author="http://www.sothink.com"
width="6px" height="10px"
xml:space="preserve">
<g id="463" transform="matrix(1, 0, 0, 1, 0.2, 4)">
<radialGradient
id="RadialGradID_4047" gradientUnits="userSpaceOnUse" gradientTransform="matrix(0.000457764, 1.52588e-005, -4.57764e-005, 0.00418091, 1.35, -0.2)" spreadMethod ="pad" cx="0" cy="0" r="819.2" fx="0" fy="0" >
<stop  offset="0.313725"  style="stop-color:#FFFFFF;stop-opacity:0.380392" />
<stop  offset="1"  style="stop-color:#FFFFFF;stop-opacity:0" />
</radialGradient>
<path style="fill:url(#RadialGradID_4047) " d="M1.9,-0.2L1.7 1.7L1.4 2.35Q1.15 2.35 1.05 1.6Q0.9 0.9 0.9 -0.25L1.1 -2.05Q1.2 -2.8 1.45 -2.8L1.75 -2L1.9 -0.2" />
<radialGradient
id="RadialGradID_4048" gradientUnits="userSpaceOnUse" gradientTransform="matrix(0.00309753, 0, 0, 0.00418091, 2.45, 3.2)" spreadMethod ="pad" cx="0" cy="0" r="819.2" fx="0" fy="0" >
<stop  offset="0.0823529"  style="stop-color:#F7A977;stop-opacity:0.901961" />
<stop  offset="0.501961"  style="stop-color:#FBD1B7;stop-opacity:0.882353" />
<stop  offset="1"  style="stop-color:#FFECD9;stop-opacity:0" />
</radialGradient>
<path style="fill:url(#RadialGradID_4048) " d="M2.75,-1.5L3.4 0.5L3.95 3.1L3.4 3.45Q3 3.65 2.75 3.8L2.35 3.75Q2.2 3.55 2.5 3.15L2.9 2.45L2.9 1.8Q2.75 1.45 2.75 0.3L2.75 -0.8L2.75 -1.5" />
<path style="fill:#EDA789;fill-opacity:1" d="M-0.1,3.05L-0.05 3.05L-0.1 3.05" />
<radialGradient
id="RadialGradID_4049" gradientUnits="userSpaceOnUse" gradientTransform="matrix(0.00404358, 0, 0, 0.00354004, 2.45, 3.2)" spreadMethod ="pad" cx="0" cy="0" r="819.2" fx="0" fy="0" >
<stop  offset="0.0823529"  style="stop-color:#EEA677;stop-opacity:0.901961" />
<stop  offset="0.54902"  style="stop-color:#FBD1B7;stop-opacity:0.882353" />
<stop  offset="1"  style="stop-color:#FFECD9;stop-opacity:0" />
</radialGradient>
<path style="fill:url(#RadialGradID_4049) " d="M-0.05,3.05Q0.1 2.8 0.5 2.9L1.5 3.05L2.65 2.9Q3.25 2.75 3.45 3.05Q3.85 3.15 3.45 3.45L2.45 4.2Q2.05 5.4 1.8 5.25L1.4 4.65L1.1 4.1L0.35 3.65L-0.2 3.2L-0.1 3.05L-0.05 3.05" />
<path style="fill:#E27B50;fill-opacity:1" d="M3.15,3.55L2.15 3.85Q2.5 3.55 2.75 3.5L3.15 3.55M1.3,3.85L0.25 3.55L0.75 3.5L1.3 3.85" />
<radialGradient
id="RadialGradID_4050" gradientUnits="userSpaceOnUse" gradientTransform="matrix(0.00726318, 0, 0, 0.00726318, 4.45, -3.6)" spreadMethod ="pad" cx="0" cy="0" r="819.2" fx="0" fy="0" >
<stop  offset="0.0823529"  style="stop-color:#F9BD97;stop-opacity:0.901961" />
<stop  offset="0.427451"  style="stop-color:#FBD1B7;stop-opacity:0.882353" />
<stop  offset="1"  style="stop-color:#FFECD9;stop-opacity:0" />
</radialGradient>
<path style="fill:url(#RadialGradID_4050) " d="M5.7,-3.7L4.5 -2.15Q3.4 -0.95 3.3 0.25Q3.2 1.5 2.9 1.7Q2.6 1.85 2.75 -0.45Q2.85 -2.8 3.5 -3.25L4.25 -3.7L5.1 -3.95Q5.85 -4.1 5.7 -3.7" />
</g>
</svg>
